X:1
T: Concerto Fminor n5
C:J.S.Bach
L:1/16
Q:1/4=66
M:2/4
K:Abmaj
V:1
 F2F2- FcA=E | F=EF2- FcAE | (3F_G=EF2- FcAF | d2B2 (3dB=AB2 | B2B2- Bfd=A | B=AB2- BfdA |  (3B_c=AB2- BfdB | =e2c2e/4f/4e/=de2 | gf=e=d c2B2 | A/4B/4A/GA2- AF=EF | _c=c=dc _c=AGF |  F/4G/4F/4G/4F=E2- EC=DE | F2F2- FcA=E | F=EF2- FcAF | (3dcB(3ABG (3=edc(3BcA |  (3fed(3cdB (3gf=e(3dcB | (3AGF(3BAG (3cBA(3dBG | (3=EGBB2- (3BGA(3BAG |  (3Ad_c(3=c=EF (3BAG(3AGF | (3FCB,(3A,B,C F,4 | (3cfga2- (3afg(3agf |  (3=efgB2- (3Bcd(3GAB | (3=EFG(3CEG (3BAG(3dcB | (3ABcF2- (3FFG(3=AGF |  (3cB=A(3edc (3_gfe(3=ac'e | (3dcBb2- (3bga(3bag | (3fec(3dcd (3bag(3fge | (3dBdc2- (3cAB(3cBA |  (3_GFd(3FEc (3EDB(3DCA | (3GAB(3AGF (3GFE(3dcB | (3cfe(3dcB A/4B/4A/4B/4AGA | =d2e2- (3efg(3agf |  (3edc(3fed c/4d/4c/4d/4cBA | (3AEA(3ceg (3aec(3AEC | e2A2- AecG | AGA2- AecG | (3ABGA2- AecG |  A2A,2 A/G/A2c/e/ | a3e/d/ (3cde(3dcB | B2=A2- (3A_AB(3BAG | (3Fce(3=Ae_g- ge(3fce- |  (3edc(3dB=A (3BFDB,B- | (3Bcd(3ef_g A>gf2 | (3_GAB(3cde F>ed2 |  (3Edc(3DcB (3CB=A(3_GF=E | (3F_G=EF2- (3FCB,(3=A,B,C | (3z =AB(3cAE (3z AB(3cAE |  (3z Bc(3dBF (3z Bc(3dBF | (3z cd(3ec=A (3z cd(3ecA | (3z de(3fdB (3z de(3fdB |  (3z ef(3_gec (3z ef(3gec | (3z de(3fdB (3z de(3fdB | (3z cd(3ecB (3z cd(3ecB |  (3z cd(3ec=A (3z cd(3ecA | e/d/e/d/e/d/e/d/ e/d/e/d/e/d/e/d/- | (3ded(3cdB (3efe(3dec |  _g/f/g/f/g/f/g/f/ g/f/g/f/g/f/g/f/- | (3f_gf(3ef=d (3gag(3fge | (3=ac'b(3agf (3e_gf(3edc |  (3d=AB(3eAB (3fAB(3_gAB | (3D=AB(3EAB (3FAB(3_GAB | e4- (3eBA(3_GFE | e4- (3ecB(3=AGF |  (3dBA(3_GFE (3cAG(3FED | (3B_GF(3EDC (3=AF=G(3ABc | (3c=AB(3cde (3e_gf(3edc | (3dfe(3dcB B2=A>B |  =e2f2- (3fg=a(3b_a_g | (3fed(3_gfe d2c/4d/4cB/ | (3BdB(3FBF (3DBF(3DFD | B2 B2- Bfd=A |  B=AB2- BfdA | (3B_c=AB2- BfdB | _g2e2 (3ge=de2 | A2A2- AecG | AGA2- AecG | (3ABGA2- AecA |  f2d2 (3fdcd2- | (3dDC(3DEF (3_GDC(3DFG | (3ADC(3D_GA (3BDC(3DAB | (3cAG(3ABc (3dAG(3Acd |  (3ecB(3cde (3fB=A(3B=ef | gf=e=d c2B2 | A/4B/4A/GA2- AF=EF | _c=c=dc _cAGF |  G/F/G/F/=E2- Ec=d=e | f2f2- fc'a=e | f=ef2- fc'ae | (3fg=ef2- fc'af | (3ba_g(3fed (3edc(3dcB |  (3gf=e(3dcB (3cBA(3BAG | (3Afg(3agf (3Bfg(3agf | (3cfg(3agf (3dfg(3agf | (3gdc(3Bcd (3c=ef(3gfe |  (3fcB(3ABc (3_cfg(3agf | (3=ece(3geg (3bgb(3d'c'b | (3c'af(3cAc (3fcf(3afa |  (3bg=e(3BGB (3eBe(3gfe | (3afc(3AFA (3cAc(3fga | (3_cfa(3afc (3cfa(3afc |  (3B=ef(3geB (3Bef(3geB | (3cAG(3F=EF (3=dAG(3FEF | (3=eAG(3F=EF (3fdc(3B=AB |  c'/b/c'/b/c'/b/c'/b/ c'/b/c'/b/c'/b/c'/b/ | (3bgf(3=e=dc (3_c=ce(3gab |  b/a/b/a/b/a/b/a/ b/a/b/a/b/a/b/a/ | (3aba(3_gaf (3gbc'(3d'bg | (3=ega(3bge (3cdc(3BAG |  F2F2- FcA=E | F=EF2- FcAF | (3dcB(3ABG (3=edc(3BcA | (3fed(3cdB (3gf=e(3dcB |  (3AGF(3BAG (3cBA(3dBG | (3=EGBB2- (3BGA(3BAG | (3Ad_c(3=c=EF (3BAG(3AGF | (3FCB,(3A,B,C F,4- |  F,4 z4 | z8 | [Q:1/4=62]c8- c2d2e2f2 | c4 B4- B2c2d2e2 | A4 a2f2 d4- dedc | d2b2 g2e2 d4 c2d2 | d2c2B2A2 A8 | a8- a2gf g2a2 | B8- B2 =d2f2a2 | g8- gfe=d c2B2 | A4- ABAG A2 c2e2g2 | f8- fe=de fdBA | G2B2=d2f2 e8 | z2 fg agac' =d6 e2 | e8-e4 z4 | _g8- f2fe dcB2 | =A8- A2B2c2d2 | e2f2_g2=a2 c'2e2 z f_gf | e2d2c2B2 d'6 f2 | _g/f/ef2 d'2- d'/c'/b/=a/ a2 b4 f2 | f=de2 z f_g/f/e c'4- c'e_dc| d2 f2b2c'2 d'6 b2 | b8 z8 | d8- dedc d2b2 | d2>c2- c4- c2 A2B2c2 | dedc def_g a2gf gcg2 | _g2>f2- f4- f2B2 d/c/B/c/d2 | (3G2F2G2 (3A2G2A2 (3B2c2B2 (3A2B2c2 | (3d2c2d2 b4- bcde dcB2 | c2e2a2f2 e2d2g2a2 | c4 B8 z4 | c8- cBdc edf2 | f2 B6 z AcB dce2 | e2A2a2f2 d8 | z2 b2g2e2 d4 c2d2 | dcde dcBA A3(3F/_G/A/ GFG2 | F2G2G2A2 A8 | z BAG AdB2 A2 G4 A2 | A2c2 f=de2- e4- e2e2- | e2fg afc2 d3c Bcd2 | AG2A B2AB c4- c/B/A/G/A/c/=E | F2f2- f/g/f/=e/fc- c4 B2c2 | c8-c8 | C,2G,C _FGc2- | c8 -c8 |]